X: 15448
T: Glen Of Aherlow, The
R: reel
M: 4/4
K: Edorian
|:"Bm"B2 AF BFAF|"Em" EDEF EDB,A,|"Bm" B2 AF BFAF|"D"DFAF "Em"FEEA|
"Bm"B2 AF BFAF|"Em"EDEF EDB,A,|"Bm"B,E (3EFE DEFA|"Bm"dBAF "Em"FE E2:|
|:"Em"eB (3BcB eg"D"fe|"Bm"fd (3ded Adfd|"Em"eB (3BcB eg"D"fe|"Bm"dBAF "Em"FE E2|
"Em"eB (3BcB eg"D"fe|"Bm"fd (3ded Adfd|"Em"BABd "D"egfe|"Bm"dBAF "Em"FE E2:|

